src/assets/svgs/clock.svg

<svg xmlns="http://www.w3.org/2000/svg" width="12" height="12" viewBox="0 0 16 17" fill="none">
<g clip-path="url(#clip0_1_106)">
<path d="M10.8505 9.91285L8.61965 8.23972V4.83153C8.61965 4.48885 8.34265 4.21185 7.99997 4.21185C7.65728 4.21185 7.38028 4.48885 7.38028 4.83153V8.5496C7.38028 8.74478 7.472 8.92885 7.62815 9.04535L10.1068 10.9044C10.2184 10.988 10.3485 11.0283 10.478 11.0283C10.667 11.0283 10.8529 10.9434 10.9744 10.7798C11.1802 10.5065 11.1244 10.118 10.8505 9.91285Z" fill="#4E4B66"/>
<path d="M8 0.5C3.58853 0.5 0 4.08853 0 8.5C0 12.9115 3.58853 16.5 8 16.5C12.4115 16.5 16 12.9115 16 8.5C16 4.08853 12.4115 0.5 8 0.5ZM8 15.2607C4.27266 15.2607 1.23934 12.2273 1.23934 8.5C1.23934 4.77266 4.27266 1.73934 8 1.73934C11.728 1.73934 14.7607 4.77266 14.7607 8.5C14.7607 12.2273 11.7273 15.2607 8 15.2607Z" fill="#4E4B66"/>
</g>
<defs>
<clipPath id="clip0_1_106">
<rect width="16" height="16" fill="white" transform="translate(0 0.5)"/>
</clipPath>
</defs>
</svg>

<svg xmlns="http://www.w3.org/2000/svg" width="12" height="12" viewBox="0 0 16 17" fill="none"><g clip-path="url(#a)" fill="#4E4B66"><path d="M10.85 9.913 8.62 8.24V4.832a.62.62 0 1 0-1.24 0V8.55c0 .195.092.379.248.495l2.479 1.86a.617.617 0 0 0 .867-.125.618.618 0 0 0-.123-.867Z"/><path d="M8 .5c-4.411 0-8 3.589-8 8 0 4.412 3.589 8 8 8 4.412 0 8-3.588 8-8 0-4.411-3.588-8-8-8Zm0 14.76A6.769 6.769 0 0 1 1.24 8.5 6.769 6.769 0 0 1 8 1.74a6.769 6.769 0 0 1 6.76 6.76A6.77 6.77 0 0 1 8 15.26Z"/></g><defs><clipPath id="a"><path fill="#fff" transform="translate(0 .5)" d="M0 0h16v16H0z"/></clipPath></defs></svg>
